report_00007_2020-12-11T15:55:29.892Z/meta/score/samples/pages+cached+nointeractive/raw/sorted.svg

<svg width="640" height="490" xmlns="http://www.w3.org/2000/svg" xmlns:xlink="http://www.w3.org/1999/xlink"><path fill="#fff" d="M0 0h640v490H0z"/><defs><path id="d" stroke-width=".222" stroke="currentColor" d="M-1-1h2v2h-2z"/><path id="b" stroke-width=".222" stroke="currentColor" d="M0-1.33l-1.33 2h2.66z"/><path id="f" stroke-width=".222" stroke="currentColor" d="M0 1.33L1.265.411.782-1.067l-1.564-.009-.483 1.487z"/><use xlink:href="#b" id="c" stroke="currentColor" transform="rotate(180)"/><use xlink:href="#d" id="e" stroke="currentColor" transform="rotate(45)"/><circle id="a" stroke-width=".222" stroke="currentColor" cx="0" cy="0" r="1"/></defs><g fill="none" color="#000" stroke="currentColor"><path stroke="#000" d="M62.2 418.9h9m543.8 0h-9"/><text transform="translate(53.9 422.8)" stroke="none" fill="#000" font-family="Arial" font-size="12" text-anchor="end"><tspan>0.5</tspan></text></g><g fill="none" color="#000" stroke="currentColor"><path stroke="#000" d="M62.2 348.4h9m543.8 0h-9"/><text transform="translate(53.9 352.3)" stroke="none" fill="#000" font-family="Arial" font-size="12" text-anchor="end"><tspan>0.51</tspan></text></g><g fill="none" color="#000" stroke="currentColor"><path stroke="#000" d="M62.2 277.9h9m543.8 0h-9"/><text transform="translate(53.9 281.8)" stroke="none" fill="#000" font-family="Arial" font-size="12" text-anchor="end"><tspan>0.52</tspan></text></g><g fill="none" color="#000" stroke="currentColor"><path stroke="#000" d="M62.2 207.4h9m543.8 0h-9"/><text transform="translate(53.9 211.3)" stroke="none" fill="#000" font-family="Arial" font-size="12" text-anchor="end"><tspan>0.53</tspan></text></g><g fill="none" color="#000" stroke="currentColor"><path stroke="#000" d="M62.2 136.8h9m543.8 0h-9"/><text transform="translate(53.9 140.7)" stroke="none" fill="#000" font-family="Arial" font-size="12" text-anchor="end"><tspan>0.54</tspan></text></g><g fill="none" color="#000" stroke="currentColor"><path stroke="#000" d="M62.2 66.3h9m543.8 0h-9"/><text transform="translate(53.9 70.2)" stroke="none" fill="#000" font-family="Arial" font-size="12" text-anchor="end"><tspan>0.55</tspan></text></g><g fill="none" color="#000" stroke="currentColor"><path stroke="#000" d="M62.2 436v-9m0-408.9v9"/><text transform="translate(62.2 457.9)" stroke="none" fill="#000" font-family="Arial" font-size="12" text-anchor="middle"><tspan>0</tspan></text></g><g fill="none" color="#000" stroke="currentColor"><path stroke="#000" d="M118 436v-9m0-408.9v9"/><text transform="translate(118 457.9)" stroke="none" fill="#000" font-family="Arial" font-size="12" text-anchor="middle"><tspan>10</tspan></text></g><g fill="none" color="#000" stroke="currentColor"><path stroke="#000" d="M173.9 436v-9m0-408.9v9"/><text transform="translate(173.9 457.9)" stroke="none" fill="#000" font-family="Arial" font-size="12" text-anchor="middle"><tspan>20</tspan></text></g><g fill="none" color="#000" stroke="currentColor"><path stroke="#000" d="M229.7 436v-9m0-408.9v9"/><text transform="translate(229.7 457.9)" stroke="none" fill="#000" font-family="Arial" font-size="12" text-anchor="middle"><tspan>30</tspan></text></g><g fill="none" color="#000" stroke="currentColor"><path stroke="#000" d="M285.6 436v-9m0-408.9v9"/><text transform="translate(285.6 457.9)" stroke="none" fill="#000" font-family="Arial" font-size="12" text-anchor="middle"><tspan>40</tspan></text></g><g fill="none" color="#000" stroke="currentColor"><path stroke="#000" d="M341.4 436v-9m0-408.9v9"/><text transform="translate(341.4 457.9)" stroke="none" fill="#000" font-family="Arial" font-size="12" text-anchor="middle"><tspan>50</tspan></text></g><g fill="none" color="#000" stroke="currentColor"><path stroke="#000" d="M397.2 436v-9m0-408.9v9"/><text transform="translate(397.2 457.9)" stroke="none" fill="#000" font-family="Arial" font-size="12" text-anchor="middle"><tspan>60</tspan></text></g><g fill="none" color="#000" stroke="currentColor"><path stroke="#000" d="M453.1 436v-9m0-408.9v9"/><text transform="translate(453.1 457.9)" stroke="none" fill="#000" font-family="Arial" font-size="12" text-anchor="middle"><tspan>70</tspan></text></g><g fill="none" color="#000" stroke="currentColor"><path stroke="#000" d="M508.9 436v-9m0-408.9v9"/><text transform="translate(508.9 457.9)" stroke="none" fill="#000" font-family="Arial" font-size="12" text-anchor="middle"><tspan>80</tspan></text></g><g fill="none" color="#000" stroke="currentColor"><path stroke="#000" d="M564.7 436v-9m0-408.9v9"/><text transform="translate(564.7 457.9)" stroke="none" fill="#000" font-family="Arial" font-size="12" text-anchor="middle"><tspan>90</tspan></text></g><path stroke="#000" d="M62.2 18.1V436H615V18.1H62.2z" fill="none" color="#000"/><text transform="translate(321.6 475.9)" stroke="none" fill="#000" font-family="Arial" font-size="12" text-anchor="end" color="#000"><tspan>raw</tspan></text><path stroke="#9400D3" d="M329.9 472h42.2M62.2 428l5.6-37.4 5.6-4.2 5.6-1.2 5.5-28.5 5.6-8.4 5.6-12.5 5.6-.5 5.6-3.4 5.6-39.7 5.5-.5 5.6-2.8 5.6-2.3 5.6-2.5 5.6-2.2 5.6-4.6 5.5-.7 5.6-2 5.6-2.8 5.6-6.8 5.6-4.3 5.6-11.5 5.5-.4 5.6-13.2 5.6-.3 5.6-3.4 5.6-.2 5.6-.6 5.5-2.2 5.6-1.4 5.6-1 5.6-3.1 5.6-.5 5.6-2.6 5.6-1.6h5.5l5.6-2.4 5.6-1.1 5.6-2.5 5.6-1.6 5.6-2.9 5.5-7 5.6-.3 5.6-.5 5.6-1.7 5.6-.3 5.6-.3 5.5-4.7 5.6-1.6 5.6-2 5.6-4.2 5.6-2.5 5.6-2.4 5.5-.9 5.6-2.8 5.6-5.4 5.6-1.1 5.6-5.3 5.6-2.4 5.5-1.1 5.6-3.9 5.6-.4 5.6-.7 5.6-8.7 5.6-9.1 5.5-2.1 5.6-7 5.6-9.4 5.6-22.2 5.6-.8 5.6-.5 5.6-.3 5.5-.8 5.6-1.2 5.6-.6 5.6-1 5.6-.5 5.6-.3 5.5-1.6 5.6-.4 5.6-2.2 5.6-.3 5.6-3.5 5.6-1.4 5.5-2.2 5.6-3 5.6-.3 5.6-1.8 5.6-.1 5.6-1 5.5-.5 5.6-1.4 5.6-3.6 5.6-2.6 5.6-9 5.6-14.8 5.5-2.4 5.6-.4 5.6-9 5.6-4.6" fill="none" color="#000"/><g fill="none" color="#000" stroke="currentColor"><path stroke="#000" d="M62.2 18.1V436H615V18.1H62.2z"/></g></svg>

<?xml version="1.0" encoding="utf-8"  standalone="no"?>
<svg 
 width="640" height="490"
 viewBox="0 0 640 490"
 xmlns="http://www.w3.org/2000/svg"
 xmlns:xlink="http://www.w3.org/1999/xlink"
>

<title>Gnuplot</title>
<desc>Produced by GNUPLOT 5.4 patchlevel 0 </desc>

<g id="gnuplot_canvas">

<rect x="0" y="0" width="640" height="490" fill="#ffffff"/>
<defs>

	<circle id='gpDot' r='0.5' stroke-width='0.5' stroke='currentColor'/>
	<path id='gpPt0' stroke-width='0.222' stroke='currentColor' d='M-1,0 h2 M0,-1 v2'/>
	<path id='gpPt1' stroke-width='0.222' stroke='currentColor' d='M-1,-1 L1,1 M1,-1 L-1,1'/>
	<path id='gpPt2' stroke-width='0.222' stroke='currentColor' d='M-1,0 L1,0 M0,-1 L0,1 M-1,-1 L1,1 M-1,1 L1,-1'/>
	<rect id='gpPt3' stroke-width='0.222' stroke='currentColor' x='-1' y='-1' width='2' height='2'/>
	<rect id='gpPt4' stroke-width='0.222' stroke='currentColor' fill='currentColor' x='-1' y='-1' width='2' height='2'/>
	<circle id='gpPt5' stroke-width='0.222' stroke='currentColor' cx='0' cy='0' r='1'/>
	<use xlink:href='#gpPt5' id='gpPt6' fill='currentColor' stroke='none'/>
	<path id='gpPt7' stroke-width='0.222' stroke='currentColor' d='M0,-1.33 L-1.33,0.67 L1.33,0.67 z'/>
	<use xlink:href='#gpPt7' id='gpPt8' fill='currentColor' stroke='none'/>
	<use xlink:href='#gpPt7' id='gpPt9' stroke='currentColor' transform='rotate(180)'/>
	<use xlink:href='#gpPt9' id='gpPt10' fill='currentColor' stroke='none'/>
	<use xlink:href='#gpPt3' id='gpPt11' stroke='currentColor' transform='rotate(45)'/>
	<use xlink:href='#gpPt11' id='gpPt12' fill='currentColor' stroke='none'/>
	<path id='gpPt13' stroke-width='0.222' stroke='currentColor' d='M0,1.330 L1.265,0.411 L0.782,-1.067 L-0.782,-1.076 L-1.265,0.411 z'/>
	<use xlink:href='#gpPt13' id='gpPt14' fill='currentColor' stroke='none'/>
	<filter id='textbox' filterUnits='objectBoundingBox' x='0' y='0' height='1' width='1'>
	  <feFlood flood-color='#FFFFFF' flood-opacity='1' result='bgnd'/>
	  <feComposite in='SourceGraphic' in2='bgnd' operator='atop'/>
	</filter>
	<filter id='greybox' filterUnits='objectBoundingBox' x='0' y='0' height='1' width='1'>
	  <feFlood flood-color='lightgrey' flood-opacity='1' result='grey'/>
	  <feComposite in='SourceGraphic' in2='grey' operator='atop'/>
	</filter>
</defs>
<g fill="none" color="#FFFFFF" stroke="black" stroke-width="1.00" stroke-linecap="butt" stroke-linejoin="miter">
</g>
<g fill="none" color="black" stroke="currentColor" stroke-width="1.00" stroke-linecap="butt" stroke-linejoin="miter">
	<path stroke='black'  d='M62.2,418.9 L71.2,418.9 M615.0,418.9 L606.0,418.9  '/>	<g transform="translate(53.9,422.8)" stroke="none" fill="black" font-family="Arial" font-size="12.00"  text-anchor="end">
		<text><tspan font-family="Arial" > 0.5</tspan></text>
	</g>
</g>
<g fill="none" color="black" stroke="currentColor" stroke-width="1.00" stroke-linecap="butt" stroke-linejoin="miter">
	<path stroke='black'  d='M62.2,348.4 L71.2,348.4 M615.0,348.4 L606.0,348.4  '/>	<g transform="translate(53.9,352.3)" stroke="none" fill="black" font-family="Arial" font-size="12.00"  text-anchor="end">
		<text><tspan font-family="Arial" > 0.51</tspan></text>
	</g>
</g>
<g fill="none" color="black" stroke="currentColor" stroke-width="1.00" stroke-linecap="butt" stroke-linejoin="miter">
	<path stroke='black'  d='M62.2,277.9 L71.2,277.9 M615.0,277.9 L606.0,277.9  '/>	<g transform="translate(53.9,281.8)" stroke="none" fill="black" font-family="Arial" font-size="12.00"  text-anchor="end">
		<text><tspan font-family="Arial" > 0.52</tspan></text>
	</g>
</g>
<g fill="none" color="black" stroke="currentColor" stroke-width="1.00" stroke-linecap="butt" stroke-linejoin="miter">
	<path stroke='black'  d='M62.2,207.4 L71.2,207.4 M615.0,207.4 L606.0,207.4  '/>	<g transform="translate(53.9,211.3)" stroke="none" fill="black" font-family="Arial" font-size="12.00"  text-anchor="end">
		<text><tspan font-family="Arial" > 0.53</tspan></text>
	</g>
</g>
<g fill="none" color="black" stroke="currentColor" stroke-width="1.00" stroke-linecap="butt" stroke-linejoin="miter">
	<path stroke='black'  d='M62.2,136.8 L71.2,136.8 M615.0,136.8 L606.0,136.8  '/>	<g transform="translate(53.9,140.7)" stroke="none" fill="black" font-family="Arial" font-size="12.00"  text-anchor="end">
		<text><tspan font-family="Arial" > 0.54</tspan></text>
	</g>
</g>
<g fill="none" color="black" stroke="currentColor" stroke-width="1.00" stroke-linecap="butt" stroke-linejoin="miter">
	<path stroke='black'  d='M62.2,66.3 L71.2,66.3 M615.0,66.3 L606.0,66.3  '/>	<g transform="translate(53.9,70.2)" stroke="none" fill="black" font-family="Arial" font-size="12.00"  text-anchor="end">
		<text><tspan font-family="Arial" > 0.55</tspan></text>
	</g>
</g>
<g fill="none" color="black" stroke="currentColor" stroke-width="1.00" stroke-linecap="butt" stroke-linejoin="miter">
	<path stroke='black'  d='M62.2,436.0 L62.2,427.0 M62.2,18.1 L62.2,27.1  '/>	<g transform="translate(62.2,457.9)" stroke="none" fill="black" font-family="Arial" font-size="12.00"  text-anchor="middle">
		<text><tspan font-family="Arial" > 0</tspan></text>
	</g>
</g>
<g fill="none" color="black" stroke="currentColor" stroke-width="1.00" stroke-linecap="butt" stroke-linejoin="miter">
	<path stroke='black'  d='M118.0,436.0 L118.0,427.0 M118.0,18.1 L118.0,27.1  '/>	<g transform="translate(118.0,457.9)" stroke="none" fill="black" font-family="Arial" font-size="12.00"  text-anchor="middle">
		<text><tspan font-family="Arial" > 10</tspan></text>
	</g>
</g>
<g fill="none" color="black" stroke="currentColor" stroke-width="1.00" stroke-linecap="butt" stroke-linejoin="miter">
	<path stroke='black'  d='M173.9,436.0 L173.9,427.0 M173.9,18.1 L173.9,27.1  '/>	<g transform="translate(173.9,457.9)" stroke="none" fill="black" font-family="Arial" font-size="12.00"  text-anchor="middle">
		<text><tspan font-family="Arial" > 20</tspan></text>
	</g>
</g>
<g fill="none" color="black" stroke="currentColor" stroke-width="1.00" stroke-linecap="butt" stroke-linejoin="miter">
	<path stroke='black'  d='M229.7,436.0 L229.7,427.0 M229.7,18.1 L229.7,27.1  '/>	<g transform="translate(229.7,457.9)" stroke="none" fill="black" font-family="Arial" font-size="12.00"  text-anchor="middle">
		<text><tspan font-family="Arial" > 30</tspan></text>
	</g>
</g>
<g fill="none" color="black" stroke="currentColor" stroke-width="1.00" stroke-linecap="butt" stroke-linejoin="miter">
	<path stroke='black'  d='M285.6,436.0 L285.6,427.0 M285.6,18.1 L285.6,27.1  '/>	<g transform="translate(285.6,457.9)" stroke="none" fill="black" font-family="Arial" font-size="12.00"  text-anchor="middle">
		<text><tspan font-family="Arial" > 40</tspan></text>
	</g>
</g>
<g fill="none" color="black" stroke="currentColor" stroke-width="1.00" stroke-linecap="butt" stroke-linejoin="miter">
	<path stroke='black'  d='M341.4,436.0 L341.4,427.0 M341.4,18.1 L341.4,27.1  '/>	<g transform="translate(341.4,457.9)" stroke="none" fill="black" font-family="Arial" font-size="12.00"  text-anchor="middle">
		<text><tspan font-family="Arial" > 50</tspan></text>
	</g>
</g>
<g fill="none" color="black" stroke="currentColor" stroke-width="1.00" stroke-linecap="butt" stroke-linejoin="miter">
	<path stroke='black'  d='M397.2,436.0 L397.2,427.0 M397.2,18.1 L397.2,27.1  '/>	<g transform="translate(397.2,457.9)" stroke="none" fill="black" font-family="Arial" font-size="12.00"  text-anchor="middle">
		<text><tspan font-family="Arial" > 60</tspan></text>
	</g>
</g>
<g fill="none" color="black" stroke="currentColor" stroke-width="1.00" stroke-linecap="butt" stroke-linejoin="miter">
	<path stroke='black'  d='M453.1,436.0 L453.1,427.0 M453.1,18.1 L453.1,27.1  '/>	<g transform="translate(453.1,457.9)" stroke="none" fill="black" font-family="Arial" font-size="12.00"  text-anchor="middle">
		<text><tspan font-family="Arial" > 70</tspan></text>
	</g>
</g>
<g fill="none" color="black" stroke="currentColor" stroke-width="1.00" stroke-linecap="butt" stroke-linejoin="miter">
	<path stroke='black'  d='M508.9,436.0 L508.9,427.0 M508.9,18.1 L508.9,27.1  '/>	<g transform="translate(508.9,457.9)" stroke="none" fill="black" font-family="Arial" font-size="12.00"  text-anchor="middle">
		<text><tspan font-family="Arial" > 80</tspan></text>
	</g>
</g>
<g fill="none" color="black" stroke="currentColor" stroke-width="1.00" stroke-linecap="butt" stroke-linejoin="miter">
	<path stroke='black'  d='M564.7,436.0 L564.7,427.0 M564.7,18.1 L564.7,27.1  '/>	<g transform="translate(564.7,457.9)" stroke="none" fill="black" font-family="Arial" font-size="12.00"  text-anchor="middle">
		<text><tspan font-family="Arial" > 90</tspan></text>
	</g>
</g>
<g fill="none" color="black" stroke="currentColor" stroke-width="1.00" stroke-linecap="butt" stroke-linejoin="miter">
</g>
<g fill="none" color="black" stroke="currentColor" stroke-width="1.00" stroke-linecap="butt" stroke-linejoin="miter">
	<path stroke='black'  d='M62.2,18.1 L62.2,436.0 L615.0,436.0 L615.0,18.1 L62.2,18.1 Z  '/></g>
<g fill="none" color="black" stroke="currentColor" stroke-width="1.00" stroke-linecap="butt" stroke-linejoin="miter">
</g>
	<g id="gnuplot_plot_1" ><title>raw</title>
<g fill="none" color="black" stroke="currentColor" stroke-width="1.00" stroke-linecap="butt" stroke-linejoin="miter">
	<g transform="translate(321.6,475.9)" stroke="none" fill="black" font-family="Arial" font-size="12.00"  text-anchor="end">
		<text><tspan font-family="Arial" >raw</tspan></text>
	</g>
</g>
<g fill="none" color="black" stroke="currentColor" stroke-width="1.00" stroke-linecap="butt" stroke-linejoin="miter">
	<path stroke='rgb(148,   0, 211)'  d='M329.9,472.0 L372.1,472.0 M62.2,428.0 L67.8,390.6 L73.4,386.4 L79.0,385.2 L84.5,356.7 L90.1,348.3
		L95.7,335.8 L101.3,335.3 L106.9,331.9 L112.5,292.2 L118.0,291.7 L123.6,288.9 L129.2,286.6 L134.8,284.1
		L140.4,281.9 L146.0,277.3 L151.5,276.6 L157.1,274.6 L162.7,271.8 L168.3,265.0 L173.9,260.7 L179.5,249.2
		L185.0,248.8 L190.6,235.6 L196.2,235.3 L201.8,231.9 L207.4,231.7 L213.0,231.1 L218.5,228.9 L224.1,227.5
		L229.7,226.5 L235.3,223.4 L240.9,222.9 L246.5,220.3 L252.1,218.7 L257.6,218.7 L263.2,216.3 L268.8,215.2
		L274.4,212.7 L280.0,211.1 L285.6,208.2 L291.1,201.2 L296.7,200.9 L302.3,200.4 L307.9,198.7 L313.5,198.4
		L319.1,198.1 L324.6,193.4 L330.2,191.8 L335.8,189.8 L341.4,185.6 L347.0,183.1 L352.6,180.7 L358.1,179.8
		L363.7,177.0 L369.3,171.6 L374.9,170.5 L380.5,165.2 L386.1,162.8 L391.6,161.7 L397.2,157.8 L402.8,157.4
		L408.4,156.7 L414.0,148.0 L419.6,138.9 L425.1,136.8 L430.7,129.8 L436.3,120.4 L441.9,98.2 L447.5,97.4
		L453.1,96.9 L458.7,96.6 L464.2,95.8 L469.8,94.6 L475.4,94.0 L481.0,93.0 L486.6,92.5 L492.2,92.2
		L497.7,90.6 L503.3,90.2 L508.9,88.0 L514.5,87.7 L520.1,84.2 L525.7,82.8 L531.2,80.6 L536.8,77.6
		L542.4,77.3 L548.0,75.5 L553.6,75.4 L559.2,74.4 L564.7,73.9 L570.3,72.5 L575.9,68.9 L581.5,66.3
		L587.1,57.3 L592.7,42.5 L598.2,40.1 L603.8,39.7 L609.4,30.7 L615.0,26.1  '/></g>
	</g>
<g fill="none" color="#FFFFFF" stroke="rgb(148,   0, 211)" stroke-width="2.00" stroke-linecap="butt" stroke-linejoin="miter">
</g>
<g fill="none" color="black" stroke="currentColor" stroke-width="2.00" stroke-linecap="butt" stroke-linejoin="miter">
</g>
<g fill="none" color="black" stroke="black" stroke-width="1.00" stroke-linecap="butt" stroke-linejoin="miter">
</g>
<g fill="none" color="black" stroke="currentColor" stroke-width="1.00" stroke-linecap="butt" stroke-linejoin="miter">
	<path stroke='black'  d='M62.2,18.1 L62.2,436.0 L615.0,436.0 L615.0,18.1 L62.2,18.1 Z  '/></g>
<g fill="none" color="black" stroke="currentColor" stroke-width="1.00" stroke-linecap="butt" stroke-linejoin="miter">
</g>
</g>
</svg>
